src/img/linkedin.svg

<svg width="33" height="33" viewBox="0 0 33 33" fill="none" xmlns="http://www.w3.org/2000/svg">
<g clip-path="url(#clip0_2107_2)">
<path d="M16.4996 0.85083C8.01645 0.85083 1.13965 7.72763 1.13965 16.2108C1.13965 24.694 8.01645 31.5708 16.4996 31.5708C24.9828 31.5708 31.8597 24.694 31.8597 16.2108C31.8597 7.72763 24.9828 0.85083 16.4996 0.85083ZM12.7396 22.5772H9.62925V12.5676H12.7396V22.5772ZM11.1652 11.3388C10.1828 11.3388 9.54765 10.6428 9.54765 9.78203C9.54765 8.90363 10.202 8.22843 11.2052 8.22843C12.2084 8.22843 12.8228 8.90363 12.842 9.78203C12.842 10.6428 12.2084 11.3388 11.1652 11.3388ZM24.0996 22.5772H20.9892V17.03C20.9892 15.7388 20.538 14.862 19.4132 14.862C18.554 14.862 18.0436 15.4556 17.818 16.0268C17.7348 16.23 17.714 16.518 17.714 16.8044V22.5756H14.602V15.7596C14.602 14.51 14.562 13.4652 14.5204 12.566H17.2228L17.3652 13.9564H17.4276C17.8372 13.3036 18.8404 12.3404 20.5188 12.3404C22.5652 12.3404 24.0996 13.7116 24.0996 16.6588V22.5772Z" fill="#F5DDD5"/>
</g>
<defs>
<clipPath id="clip0_2107_2">
<rect width="32" height="32" fill="white" transform="translate(0.5 0.210938)"/>
</clipPath>
</defs>
</svg>

<svg width="33" height="33" fill="none" xmlns="http://www.w3.org/2000/svg"><g clip-path="url(#a)"><path d="M16.5.85C8.016.85 1.14 7.729 1.14 16.21c0 8.484 6.876 15.36 15.36 15.36 8.483 0 15.36-6.876 15.36-15.36C31.86 7.729 24.983.85 16.5.85zm-3.76 21.727H9.63v-10.01h3.11v10.01zM11.165 11.34c-.982 0-1.617-.696-1.617-1.557 0-.878.654-1.554 1.657-1.554 1.003 0 1.618.676 1.637 1.554 0 .86-.634 1.557-1.677 1.557zM24.1 22.577h-3.11V17.03c0-1.291-.452-2.168-1.577-2.168-.859 0-1.37.594-1.595 1.165-.083.203-.104.491-.104.777v5.772h-3.112V15.76c0-1.25-.04-2.295-.082-3.194h2.703l.142 1.39h.063c.41-.652 1.412-1.616 3.09-1.616 2.047 0 3.582 1.372 3.582 4.319v5.918z" fill="#F5DDD5"/></g><defs><clipPath id="a"><path fill="#fff" transform="translate(.5 .21)" d="M0 0h32v32H0z"/></clipPath></defs></svg>
